X:1
T:Standin In The Need of Prayer
T:Standin In The Need of Prayer
T:Copyright 1918 by Homer A. Rodeheaver
T:Rodeheaver's Plantation Melodies
T:Rodeheaver's Plantation Melodies
Z:Rodeheaver's Plantation Melodies
%%score [ 1 2 3 4 ]
L:1/8
Q:1/4=120
M:4/4
K:G
V:1 treble nm="Soprano" snm="S."
V:2 treble nm="Alto" snm="A."
V:3 bass nm="Tenor" snm="T."
V:4 bass nm="Bass" snm="B."
V:1
 B^A | B^ABA BABA | B A3 G4 | GGGG A A3 | B6 B^A | B^ABA BABA | B A3 G4 | GGGG B A3 | G6 B2 | %9
w: Not my|bro- ther, nor my sis- ter, but it's|me, O Lord.||* Not my|bro- ther, nor my sis- ter, but it's|me, O Lord.||* It's|
w: Not the|prea- cher, nor the dea- con * *|||* Not the|prea- cher, nor the dea- con * *||||
w: Not my|fa- ther, nor my bro- ther * *|||* Not my|fa- ther, nor my bro- ther * *||||
w: Not the|stran- ger, nor my neigh- bor * *|||* Not the|stran- ger, nor my neigh- bor * *||||
 B6 B2 | B A3 G4 | GGGG A A3 | B6 B2 | B6 B2 | B A3 G4 | GGGG B A3 | G6 :| %17
w: me. *|||* It's|me. *||||
w: ||||||||
w: ||||||||
w: ||||||||
V:2
 z2 | z8 | z8 | DDDD F F3 | G6 z2 | z8 | z8 | DDDD G F3 | D6 z2 | z2 G2 G2 G2 | G F3 D4 | %11
w: |||Stand- in' in the need of|prayer;|||Stand- in' in the need of|prayer.|It's me. It's|me, O Lord,|
 DDDD F F3 | G6 z2 | z2 G2 G2 G2 | G F3 D4 | DDDD G F3 | D6 :| %17
w: Stan- din' in the need of|prayer.|It's me. It's|me, O Lord.|Stand- in' in the need of|prayer.|
V:3
 z2 | z8 | z8 | B,B,B,B, D D3 | D6 z2 | z8 | z8 | B,B,B,B, D C3 | [G,B,]6 z2 | z2 D2 D2 D2 | %10
 D C3 B,4 | B,B,B,B, D D3 | D6 z2 | z2 D2 D2 D2 | D C3 B,4 | B,B,B,B, D C3 | [G,B,]6 :| %17
V:4
 z2 | z8 | z8 | G,G,G,G, D, D,3 | G,6 z2 | z8 | z8 | G,G,G,G, D, D,3 | G,,6 z2 | z2 G,2 G,2 G,2 | %10
 D, D,3 G,4 | G,G,G,G, D, D,3 | G,6 z2 | z2 G,2 G,2 G,2 | D, D,3 G,4 | D,D,D,D, D, D,3 | G,,6 :| %17

